app/assets/images/icons/upload-solid.svg

<?xml version="1.0" encoding="UTF-8" standalone="no"?>
<svg width="30px" height="30px" viewBox="0 0 30 30" version="1.1" xmlns="http://www.w3.org/2000/svg" xmlns:xlink="http://www.w3.org/1999/xlink">
    <!-- Generator: Sketch 3.7.2 (28276) - http://www.bohemiancoding.com/sketch -->
    <title>upload-solid</title>
    <desc>Created with Sketch.</desc>
    <defs></defs>
    <g id="Icons" stroke="none" stroke-width="1" fill="none" fill-rule="evenodd">
        <g id="upload-solid" fill="#050505">
            <path d="M14,12.4781211 L10.8218832,15.6562379 C10.4310185,16.0471026 9.80030023,16.0501012 9.40705327,15.6568542 C9.01652898,15.26633 9.01434799,14.635346 9.40766963,14.2420243 L15.0639075,8.58578644 L20.7201454,14.2420243 C21.1110101,14.632889 21.1140087,15.2636073 20.7207618,15.6568542 C20.3302375,16.0473785 19.6992535,16.0495595 19.3059319,15.6562379 L16,12.350306 L16,20.9975267 C16,21.5511774 15.5561352,22 15,22 C14.4477153,22 14,21.544239 14,20.9975267 L14,12.4781211 L14,12.4781211 Z M15,30 C23.2842712,30 30,23.2842712 30,15 C30,6.71572875 23.2842712,0 15,0 C6.71572875,0 0,6.71572875 0,15 C0,23.2842712 6.71572875,30 15,30 L15,30 Z" id="Oval-15"></path>
        </g>
    </g>
</svg>

<?xml version="1.0" encoding="UTF-8" standalone="no"?>
<svg width="30" height="30" viewBox="0 0 30 30" xmlns="http://www.w3.org/2000/svg">
  <path d="M14 12.478l-3.178 3.178a.998.998 0 0 1-1.415 0 .998.998 0 0 1 0-1.414l5.657-5.656 5.656 5.656a.998.998 0 0 1 0 1.415.998.998 0 0 1-1.414 0L16 12.35v8.648a.999.999 0 1 1-2 0v-8.52zM15 30c8.284 0 15-6.716 15-15 0-8.284-6.716-15-15-15C6.716 0 0 6.716 0 15c0 8.284 6.716 15 15 15z" fill="#050505" fill-rule="evenodd"/>
</svg>
